X: 20563
T: John Naughton's
R: reel
M: 4/4
K: Fmajor
GAGF DFCD|F2 AFcF AF|GAGF DFCe|fdcA AGGF|
G3 F DFCD|F2 AFcF AF|GAGF DFCe|fdcA AGGg||
gfdg g2ag|fdcd fdcg|gfdg g2fg|affg a ~f3|
gfdg gfdg|fdcA FGAc|d ~g3 f3g|fdcA AGGF||

